X: 8
T: When Sick Is It Tea That You Want?
R: jig
M: 6/8
L: 1/8
K: Dmaj
|:A2d dcB|ABA AFA|Add cde|fdB B2A|
|Add dcB|ABA AFA|Add cde|1 fdc d2 B:|2 fdc dfg||
|afd dcd|BGF G2 g|bge ede|cAA ABG|
|Add dcB|ABA AFA|Add cde|fdc dfg|
|afd dcd|BGF G2 F|EGB e2d|cAA ABG|
|Add dcB|ABA AFA|Add cde|fdc d2 B||


Tune 427	Setting 13288

